app/src/images/icons/header-basket.svg

<svg width="18" height="26" viewBox="0 0 18 26" fill="none" xmlns="http://www.w3.org/2000/svg">
<path d="M12.6364 6.46159V4.88061C12.6364 2.72472 11.1572 1 9.30817 1H8.63022C6.78121 1 5.302 2.72472 5.302 4.88061V6.46159H1.72727L1 22.3528C1 23.79 1.98614 25.0117 3.28044 25.0117H14.7196C15.9522 25.0117 17 23.79 17 22.3528L16.2727 6.46159H12.6364ZM6.04161 4.88061C6.04161 3.22776 7.21263 1.93421 8.56856 1.93421H9.24655C10.6641 1.93421 11.7735 3.29962 11.7735 4.88061V6.46159H6.04161V4.88061ZM16.1372 22.2809C16.1372 23.2151 15.4592 24.0056 14.6579 24.0056H3.21879C2.41755 24.0056 1.73961 23.2151 1.73961 22.2809L2.46688 7.32396H5.24038V10.5578H6.04161V7.32396H11.7735V10.5578H12.5747V7.32396H15.3482L16.0755 22.2809H16.1372Z" fill="black" stroke="#78859D" stroke-width="0.2" stroke-miterlimit="10"/>
</svg>

<svg width="18" height="26" fill="none" xmlns="http://www.w3.org/2000/svg"><path d="M12.636 6.462V4.88c0-2.155-1.479-3.88-3.328-3.88H8.63C6.781 1 5.302 2.725 5.302 4.88v1.582H1.727L1 22.352c0 1.438.986 2.66 2.28 2.66h11.44c1.232 0 2.28-1.222 2.28-2.66l-.727-15.89h-3.637zM6.042 4.88c0-1.653 1.17-2.947 2.527-2.947h.678c1.417 0 2.527 1.366 2.527 2.947v1.58H6.042V4.88zm10.095 17.4c0 .934-.678 1.725-1.48 1.725H3.22c-.801 0-1.48-.79-1.48-1.725l.728-14.957H5.24v3.234h.802V7.324h5.732v3.234h.8V7.324h2.774l.728 14.957h.061z" fill="#000" stroke="#78859D" stroke-width=".2" stroke-miterlimit="10"/></svg>
